inst/assets/svg/wi-wind-beaufort-5.svg

<?xml version="1.0" encoding="UTF-8"?>
<svg xmlns="http://www.w3.org/2000/svg" xmlns:xlink="http://www.w3.org/1999/xlink" width="30pt" height="30pt" viewBox="0 0 30 30" version="1.1">
<g id="surface1066">
<path style=" stroke:none;fill-rule:nonzero;fill:rgb(0%,0%,0%);fill-opacity:1;" d="M 4.96875 13.5 C 4.96875 13.679688 5.03125 13.808594 5.140625 13.898438 C 5.261719 14.011719 5.398438 14.070313 5.558594 14.070313 L 15.960938 14.070313 C 16.140625 14.070313 16.289063 14.128906 16.421875 14.261719 C 16.550781 14.378906 16.621094 14.539063 16.621094 14.71875 C 16.621094 14.898438 16.550781 15.058594 16.421875 15.191406 C 16.289063 15.320313 16.140625 15.390625 15.960938 15.390625 C 15.78125 15.390625 15.621094 15.320313 15.488281 15.179688 C 15.359375 15.070313 15.230469 15.019531 15.089844 15.019531 C 14.929688 15.019531 14.789063 15.070313 14.679688 15.179688 C 14.570313 15.289063 14.519531 15.421875 14.519531 15.570313 C 14.519531 15.730469 14.578125 15.871094 14.691406 15.980469 C 15.050781 16.339844 15.46875 16.511719 15.96875 16.511719 C 16.460938 16.511719 16.878906 16.339844 17.230469 15.988281 C 17.578125 15.640625 17.75 15.21875 17.75 14.71875 C 17.75 14.230469 17.578125 13.800781 17.230469 13.449219 C 16.878906 13.101563 16.460938 12.921875 15.96875 12.921875 L 5.558594 12.921875 C 5.398438 12.921875 5.261719 12.980469 5.140625 13.089844 C 5.03125 13.210938 4.96875 13.339844 4.96875 13.5 Z M 4.96875 11.480469 C 4.96875 11.648438 5.03125 11.78125 5.140625 11.871094 C 5.261719 11.980469 5.398438 12.03125 5.558594 12.03125 L 19.371094 12.03125 C 19.859375 12.03125 20.289063 11.851563 20.640625 11.511719 C 20.988281 11.160156 21.160156 10.738281 21.160156 10.238281 C 21.160156 9.75 20.988281 9.328125 20.640625 8.980469 C 20.289063 8.628906 19.871094 8.460938 19.371094 8.460938 C 18.878906 8.460938 18.460938 8.628906 18.101563 8.96875 C 18 9.089844 17.941406 9.230469 17.941406 9.378906 C 17.941406 9.539063 17.988281 9.679688 18.101563 9.78125 C 18.210938 9.878906 18.339844 9.929688 18.5 9.929688 C 18.648438 9.929688 18.789063 9.878906 18.910156 9.769531 C 19.03125 9.648438 19.179688 9.589844 19.359375 9.589844 C 19.53125 9.589844 19.691406 9.648438 19.820313 9.769531 C 19.949219 9.890625 20.019531 10.039063 20.019531 10.21875 C 20.019531 10.398438 19.949219 10.558594 19.820313 10.691406 C 19.691406 10.820313 19.539063 10.890625 19.359375 10.890625 L 5.558594 10.890625 C 5.398438 10.890625 5.261719 10.949219 5.140625 11.058594 C 5.03125 11.179688 4.96875 11.320313 4.96875 11.480469 Z M 18.039063 19.378906 C 18.019531 19.699219 18.050781 20 18.160156 20.289063 C 18.261719 20.578125 18.429688 20.851563 18.660156 21.101563 C 18.890625 21.351563 19.210938 21.539063 19.640625 21.691406 C 20.058594 21.839844 20.558594 21.910156 21.128906 21.910156 C 21.710938 21.910156 22.21875 21.828125 22.660156 21.679688 C 23.101563 21.53125 23.460938 21.339844 23.710938 21.109375 C 23.960938 20.890625 24.160156 20.621094 24.320313 20.320313 C 24.480469 20.019531 24.589844 19.75 24.640625 19.5 C 24.691406 19.25 24.71875 19.011719 24.71875 18.761719 C 24.71875 18.089844 24.511719 17.550781 24.078125 17.148438 C 23.648438 16.75 23.101563 16.539063 22.429688 16.539063 C 21.738281 16.539063 21.25 16.679688 20.980469 16.96875 L 20.960938 16.96875 L 21.308594 15.949219 L 24.761719 15.949219 L 25.148438 14.070313 L 19.910156 14.070313 L 18.460938 18.53125 L 20.460938 18.53125 C 20.621094 18.191406 20.988281 18.019531 21.570313 18.019531 C 21.890625 18.019531 22.148438 18.101563 22.339844 18.269531 C 22.53125 18.441406 22.628906 18.679688 22.628906 19.019531 C 22.628906 19.359375 22.511719 19.628906 22.28125 19.839844 C 22.050781 20.050781 21.710938 20.148438 21.28125 20.148438 C 20.96875 20.148438 20.71875 20.089844 20.550781 19.980469 C 20.339844 19.871094 20.21875 19.671875 20.191406 19.378906 Z M 18.039063 19.378906 "/>
</g>
</svg>

<?xml version="1.0" encoding="utf-8"?>
<!-- Generator: Adobe Illustrator 22.0.1, SVG Export Plug-In . SVG Version: 6.00 Build 0)  -->
<svg version="1.1" id="Layer_1" xmlns="http://www.w3.org/2000/svg" xmlns:xlink="http://www.w3.org/1999/xlink" x="0px" y="0px"
	 viewBox="0 0 30 30" style="enable-background:new 0 0 30 30;" xml:space="preserve">
<path d="M4.97,13.5c0,0.18,0.06,0.31,0.17,0.4c0.12,0.11,0.26,0.17,0.42,0.17h10.4c0.18,0,0.33,0.06,0.46,0.19
	c0.13,0.12,0.2,0.28,0.2,0.46s-0.07,0.34-0.2,0.47s-0.28,0.2-0.46,0.2c-0.18,0-0.34-0.07-0.47-0.21c-0.13-0.11-0.26-0.16-0.4-0.16
	c-0.16,0-0.3,0.05-0.41,0.16c-0.11,0.11-0.16,0.24-0.16,0.39c0,0.16,0.06,0.3,0.17,0.41c0.36,0.36,0.78,0.53,1.28,0.53
	c0.49,0,0.91-0.17,1.26-0.52c0.35-0.35,0.52-0.77,0.52-1.27c0-0.49-0.17-0.92-0.52-1.27c-0.35-0.35-0.77-0.53-1.26-0.53H5.56
	c-0.16,0-0.3,0.06-0.42,0.17C5.03,13.21,4.97,13.34,4.97,13.5z M4.97,11.48c0,0.17,0.06,0.3,0.17,0.39
	c0.12,0.11,0.26,0.16,0.42,0.16h13.81c0.49,0,0.92-0.18,1.27-0.52c0.35-0.35,0.52-0.77,0.52-1.27c0-0.49-0.17-0.91-0.52-1.26
	s-0.77-0.52-1.27-0.52c-0.49,0-0.91,0.17-1.27,0.51C18,9.09,17.94,9.23,17.94,9.38c0,0.16,0.05,0.3,0.16,0.4
	c0.11,0.1,0.24,0.15,0.4,0.15c0.15,0,0.29-0.05,0.41-0.16c0.12-0.12,0.27-0.18,0.45-0.18c0.17,0,0.33,0.06,0.46,0.18
	c0.13,0.12,0.2,0.27,0.2,0.45c0,0.18-0.07,0.34-0.2,0.47c-0.13,0.13-0.28,0.2-0.46,0.2H5.56c-0.16,0-0.3,0.06-0.42,0.17
	C5.03,11.18,4.97,11.32,4.97,11.48z M18.04,19.38c-0.02,0.32,0.01,0.62,0.12,0.91c0.1,0.29,0.27,0.56,0.5,0.81
	c0.23,0.25,0.55,0.44,0.98,0.59c0.42,0.15,0.92,0.22,1.49,0.22c0.58,0,1.09-0.08,1.53-0.23s0.8-0.34,1.05-0.57
	c0.25-0.22,0.45-0.49,0.61-0.79c0.16-0.3,0.27-0.57,0.32-0.82c0.05-0.25,0.08-0.49,0.08-0.74c0-0.67-0.21-1.21-0.64-1.61
	s-0.98-0.61-1.65-0.61c-0.69,0-1.18,0.14-1.45,0.43h-0.02l0.35-1.02h3.45l0.39-1.88h-5.24l-1.45,4.46h2
	c0.16-0.34,0.53-0.51,1.11-0.51c0.32,0,0.58,0.08,0.77,0.25c0.19,0.17,0.29,0.41,0.29,0.75c0,0.34-0.12,0.61-0.35,0.82
	c-0.23,0.21-0.57,0.31-1,0.31c-0.31,0-0.56-0.06-0.73-0.17c-0.21-0.11-0.33-0.31-0.36-0.6H18.04z"/>
</svg>
